(Projekt rfid_connector_assembly_helper)
(Erstellt mit Estlcam Version 10 Build 10,046)
(Laufzeit ca. 01:12:41 Stunden)

(Benoetigte Werkzeuge:)
(Bohrer)
G21
G90
G94
M03 S24000
G00 Z5.0000


(Nr. 1: Bohrung 61)
G00 X-5.0000 Y-5.0000
G00 Z0.5000
G01 Z-0.5000 F25 S24000
G00 Z0.5000
G00 Z0.0000
G01 Z-1.0000
G00 Z0.5000
G00 Z-0.5000
G01 Z-1.5000
G00 Z0.5000
G00 Z-1.0000
G01 Z-1.8000
G00 Z5.0000


(Nr. 2: Bohrung 43)
G00 X-13.0600 Y-4.3700 Z5.0000
G00 Z0.5000
G01 Z-0.5000 F25
G00 Z0.5000
G00 Z0.0000
G01 Z-1.0000
G00 Z0.5000
G00 Z-0.5000
G01 Z-1.5000
G00 Z0.5000
G00 Z-1.0000
G01 Z-1.8000
G00 Z5.0000


(Nr. 3: Bohrung 44)
G00 X-13.0600 Y-6.9100 Z5.0000
G00 Z0.5000
G01 Z-0.5000 F25
G00 Z0.5000
G00 Z0.0000
G01 Z-1.0000
G00 Z0.5000
G00 Z-0.5000
G01 Z-1.5000
G00 Z0.5000
G00 Z-1.0000
G01 Z-1.8000
G00 Z5.0000


(Nr. 4: Bohrung 45)
G00 X-13.0600 Y-9.4500 Z5.0000
G00 Z0.5000
G01 Z-0.5000 F25
G00 Z0.5000
G00 Z0.0000
G01 Z-1.0000
G00 Z0.5000
G00 Z-0.5000
G01 Z-1.5000
G00 Z0.5000
G00 Z-1.0000
G01 Z-1.8000
G00 Z5.0000


(Nr. 5: Bohrung 46)
G00 X-13.0600 Y-11.9900 Z5.0000
G00 Z0.5000
G01 Z-0.5000 F25
G00 Z0.5000
G00 Z0.0000
G01 Z-1.0000
G00 Z0.5000
G00 Z-0.5000
G01 Z-1.5000
G00 Z0.5000
G00 Z-1.0000
G01 Z-1.8000
G00 Z5.0000


(Nr. 6: Bohrung 47)
G00 X-13.0600 Y-14.5300 Z5.0000
G00 Z0.5000
G01 Z-0.5000 F25
G00 Z0.5000
G00 Z0.0000
G01 Z-1.0000
G00 Z0.5000
G00 Z-0.5000
G01 Z-1.5000
G00 Z0.5000
G00 Z-1.0000
G01 Z-1.8000
G00 Z5.0000


(Nr. 7: Bohrung 48)
G00 X-13.0600 Y-17.0700 Z5.0000
G00 Z0.5000
G01 Z-0.5000 F25
G00 Z0.5000
G00 Z0.0000
G01 Z-1.0000
G00 Z0.5000
G00 Z-0.5000
G01 Z-1.5000
G00 Z0.5000
G00 Z-1.0000
G01 Z-1.8000
G00 Z5.0000


(Nr. 8: Bohrung 49)
G00 X-13.0600 Y-19.6100 Z5.0000
G00 Z0.5000
G01 Z-0.5000 F25
G00 Z0.5000
G00 Z0.0000
G01 Z-1.0000
G00 Z0.5000
G00 Z-0.5000
G01 Z-1.5000
G00 Z0.5000
G00 Z-1.0000
G01 Z-1.8000
G00 Z5.0000


(Nr. 9: Bohrung 50)
G00 X-13.0600 Y-22.1500 Z5.0000
G00 Z0.5000
G01 Z-0.5000 F25
G00 Z0.5000
G00 Z0.0000
G01 Z-1.0000
G00 Z0.5000
G00 Z-0.5000
G01 Z-1.5000
G00 Z0.5000
G00 Z-1.0000
G01 Z-1.8000
G00 Z5.0000


(Nr. 10: Bohrung 51)
G00 X-13.0600 Y-24.6900 Z5.0000
G00 Z0.5000
G01 Z-0.5000 F25
G00 Z0.5000
G00 Z0.0000
G01 Z-1.0000
G00 Z0.5000
G00 Z-0.5000
G01 Z-1.5000
G00 Z0.5000
G00 Z-1.0000
G01 Z-1.8000
G00 Z5.0000


(Nr. 11: Bohrung 52)
G00 X-13.0600 Y-27.2300 Z5.0000
G00 Z0.5000
G01 Z-0.5000 F25
G00 Z0.5000
G00 Z0.0000
G01 Z-1.0000
G00 Z0.5000
G00 Z-0.5000
G01 Z-1.5000
G00 Z0.5000
G00 Z-1.0000
G01 Z-1.8000
G00 Z5.0000


(Nr. 12: Bohrung 53)
G00 X-13.0600 Y-29.7700 Z5.0000
G00 Z0.5000
G01 Z-0.5000 F25
G00 Z0.5000
G00 Z0.0000
G01 Z-1.0000
G00 Z0.5000
G00 Z-0.5000
G01 Z-1.5000
G00 Z0.5000
G00 Z-1.0000
G01 Z-1.8000
G00 Z5.0000


(Nr. 13: Bohrung 54)
G00 X-13.0600 Y-32.3100 Z5.0000
G00 Z0.5000
G01 Z-0.5000 F25
G00 Z0.5000
G00 Z0.0000
G01 Z-1.0000
G00 Z0.5000
G00 Z-0.5000
G01 Z-1.5000
G00 Z0.5000
G00 Z-1.0000
G01 Z-1.8000
G00 Z5.0000


(Nr. 14: Bohrung 55)
G00 X-13.0600 Y-34.8500 Z5.0000
G00 Z0.5000
G01 Z-0.5000 F25
G00 Z0.5000
G00 Z0.0000
G01 Z-1.0000
G00 Z0.5000
G00 Z-0.5000
G01 Z-1.5000
G00 Z0.5000
G00 Z-1.0000
G01 Z-1.8000
G00 Z5.0000


(Nr. 15: Bohrung 56)
G00 X-13.0600 Y-37.3900 Z5.0000
G00 Z0.5000
G01 Z-0.5000 F25
G00 Z0.5000
G00 Z0.0000
G01 Z-1.0000
G00 Z0.5000
G00 Z-0.5000
G01 Z-1.5000
G00 Z0.5000
G00 Z-1.0000
G01 Z-1.8000
G00 Z5.0000


(Nr. 16: Bohrung 57)
G00 X-13.0600 Y-39.9300 Z5.0000
G00 Z0.5000
G01 Z-0.5000 F25
G00 Z0.5000
G00 Z0.0000
G01 Z-1.0000
G00 Z0.5000
G00 Z-0.5000
G01 Z-1.5000
G00 Z0.5000
G00 Z-1.0000
G01 Z-1.8000
G00 Z5.0000


(Nr. 17: Bohrung 58)
G00 X-13.0600 Y-42.4700 Z5.0000
G00 Z0.5000
G01 Z-0.5000 F25
G00 Z0.5000
G00 Z0.0000
G01 Z-1.0000
G00 Z0.5000
G00 Z-0.5000
G01 Z-1.5000
G00 Z0.5000
G00 Z-1.0000
G01 Z-1.8000
G00 Z5.0000


(Nr. 18: Bohrung 59)
G00 X-13.0600 Y-45.0100 Z5.0000
G00 Z0.5000
G01 Z-0.5000 F25
G00 Z0.5000
G00 Z0.0000
G01 Z-1.0000
G00 Z0.5000
G00 Z-0.5000
G01 Z-1.5000
G00 Z0.5000
G00 Z-1.0000
G01 Z-1.8000
G00 Z5.0000


(Nr. 19: Bohrung 60)
G00 X-13.0600 Y-47.5500 Z5.0000
G00 Z0.5000
G01 Z-0.5000 F25
G00 Z0.5000
G00 Z0.0000
G01 Z-1.0000
G00 Z0.5000
G00 Z-0.5000
G01 Z-1.5000
G00 Z0.5000
G00 Z-1.0000
G01 Z-1.8000
G00 Z5.0000


(Nr. 20: Bohrung 62)
G00 X-5.0000 Y-50.5000 Z5.0000
G00 Z0.5000
G01 Z-0.5000 F25
G00 Z0.5000
G00 Z0.0000
G01 Z-1.0000
G00 Z0.5000
G00 Z-0.5000
G01 Z-1.5000
G00 Z0.5000
G00 Z-1.0000
G01 Z-1.8000
G00 Z5.0000


(Nr. 21: Bohrung 39)
G00 X-15.6000 Y-32.3200 Z5.0000
G00 Z0.5000
G01 Z-0.5000 F25
G00 Z0.5000
G00 Z0.0000
G01 Z-1.0000
G00 Z0.5000
G00 Z-0.5000
G01 Z-1.5000
G00 Z0.5000
G00 Z-1.0000
G01 Z-1.8000
G00 Z5.0000


(Nr. 22: Bohrung 40)
G00 X-15.6000 Y-29.7800 Z5.0000
G00 Z0.5000
G01 Z-0.5000 F25
G00 Z0.5000
G00 Z0.0000
G01 Z-1.0000
G00 Z0.5000
G00 Z-0.5000
G01 Z-1.5000
G00 Z0.5000
G00 Z-1.0000
G01 Z-1.8000
G00 Z5.0000


(Nr. 23: Bohrung 41)
G00 X-15.6000 Y-27.2400 Z5.0000
G00 Z0.5000
G01 Z-0.5000 F25
G00 Z0.5000
G00 Z0.0000
G01 Z-1.0000
G00 Z0.5000
G00 Z-0.5000
G01 Z-1.5000
G00 Z0.5000
G00 Z-1.0000
G01 Z-1.8000
G00 Z5.0000


(Nr. 24: Bohrung 36)
G00 X-23.2200 Y-27.2400 Z5.0000
G00 Z0.5000
G01 Z-0.5000 F25
G00 Z0.5000
G00 Z0.0000
G01 Z-1.0000
G00 Z0.5000
G00 Z-0.5000
G01 Z-1.5000
G00 Z0.5000
G00 Z-1.0000
G01 Z-1.8000
G00 Z5.0000


(Nr. 25: Bohrung 37)
G00 X-23.2200 Y-29.7800 Z5.0000
G00 Z0.5000
G01 Z-0.5000 F25
G00 Z0.5000
G00 Z0.0000
G01 Z-1.0000
G00 Z0.5000
G00 Z-0.5000
G01 Z-1.5000
G00 Z0.5000
G00 Z-1.0000
G01 Z-1.8000
G00 Z5.0000


(Nr. 26: Bohrung 38)
G00 X-23.2200 Y-32.3200 Z5.0000
G00 Z0.5000
G01 Z-0.5000 F25
G00 Z0.5000
G00 Z0.0000
G01 Z-1.0000
G00 Z0.5000
G00 Z-0.5000
G01 Z-1.5000
G00 Z0.5000
G00 Z-1.0000
G01 Z-1.8000
G00 Z5.0000


(Nr. 27: Bohrung 33)
G00 X-30.8400 Y-29.7800 Z5.0000
G00 Z0.5000
G01 Z-0.5000 F25
G00 Z0.5000
G00 Z0.0000
G01 Z-1.0000
G00 Z0.5000
G00 Z-0.5000
G01 Z-1.5000
G00 Z0.5000
G00 Z-1.0000
G01 Z-1.8000
G00 Z5.0000


(Nr. 28: Bohrung 24)
G00 X-38.4568 Y-29.7752 Z5.0000
G00 Z0.5000
G01 Z-0.5000 F25
G00 Z0.5000
G00 Z0.0000
G01 Z-1.0000
G00 Z0.5000
G00 Z-0.5000
G01 Z-1.5000
G00 Z0.5000
G00 Z-1.0000
G01 Z-1.8000
G00 Z5.0000


(Nr. 29: Bohrung 25)
G00 X-38.4600 Y-32.3100 Z5.0000
G00 Z0.5000
G01 Z-0.5000 F25
G00 Z0.5000
G00 Z0.0000
G01 Z-1.0000
G00 Z0.5000
G00 Z-0.5000
G01 Z-1.5000
G00 Z0.5000
G00 Z-1.0000
G01 Z-1.8000
G00 Z5.0000


(Nr. 30: Bohrung 26)
G00 X-38.4600 Y-34.8500 Z5.0000
G00 Z0.5000
G01 Z-0.5000 F25
G00 Z0.5000
G00 Z0.0000
G01 Z-1.0000
G00 Z0.5000
G00 Z-0.5000
G01 Z-1.5000
G00 Z0.5000
G00 Z-1.0000
G01 Z-1.8000
G00 Z5.0000


(Nr. 31: Bohrung 27)
G00 X-38.4600 Y-37.3900 Z5.0000
G00 Z0.5000
G01 Z-0.5000 F25
G00 Z0.5000
G00 Z0.0000
G01 Z-1.0000
G00 Z0.5000
G00 Z-0.5000
G01 Z-1.5000
G00 Z0.5000
G00 Z-1.0000
G01 Z-1.8000
G00 Z5.0000


(Nr. 32: Bohrung 28)
G00 X-38.4600 Y-39.9300 Z5.0000
G00 Z0.5000
G01 Z-0.5000 F25
G00 Z0.5000
G00 Z0.0000
G01 Z-1.0000
G00 Z0.5000
G00 Z-0.5000
G01 Z-1.5000
G00 Z0.5000
G00 Z-1.0000
G01 Z-1.8000
G00 Z5.0000


(Nr. 33: Bohrung 29)
G00 X-38.4600 Y-42.4700 Z5.0000
G00 Z0.5000
G01 Z-0.5000 F25
G00 Z0.5000
G00 Z0.0000
G01 Z-1.0000
G00 Z0.5000
G00 Z-0.5000
G01 Z-1.5000
G00 Z0.5000
G00 Z-1.0000
G01 Z-1.8000
G00 Z5.0000


(Nr. 34: Bohrung 30)
G00 X-38.4600 Y-45.0100 Z5.0000
G00 Z0.5000
G01 Z-0.5000 F25
G00 Z0.5000
G00 Z0.0000
G01 Z-1.0000
G00 Z0.5000
G00 Z-0.5000
G01 Z-1.5000
G00 Z0.5000
G00 Z-1.0000
G01 Z-1.8000
G00 Z5.0000


(Nr. 35: Bohrung 31)
G00 X-38.4600 Y-47.5500 Z5.0000
G00 Z0.5000
G01 Z-0.5000 F25
G00 Z0.5000
G00 Z0.0000
G01 Z-1.0000
G00 Z0.5000
G00 Z-0.5000
G01 Z-1.5000
G00 Z0.5000
G00 Z-1.0000
G01 Z-1.8000
G00 Z5.0000


(Nr. 36: Bohrung 32)
G00 X-30.8400 Y-45.0200 Z5.0000
G00 Z0.5000
G01 Z-0.5000 F25
G00 Z0.5000
G00 Z0.0000
G01 Z-1.0000
G00 Z0.5000
G00 Z-0.5000
G01 Z-1.5000
G00 Z0.5000
G00 Z-1.0000
G01 Z-1.8000
G00 Z5.0000


(Nr. 37: Bohrung 23)
G00 X-38.4600 Y-27.2300 Z5.0000
G00 Z0.5000
G01 Z-0.5000 F25
G00 Z0.5000
G00 Z0.0000
G01 Z-1.0000
G00 Z0.5000
G00 Z-0.5000
G01 Z-1.5000
G00 Z0.5000
G00 Z-1.0000
G01 Z-1.8000
G00 Z5.0000


(Nr. 38: Bohrung 22)
G00 X-38.4600 Y-24.6900 Z5.0000
G00 Z0.5000
G01 Z-0.5000 F25
G00 Z0.5000
G00 Z0.0000
G01 Z-1.0000
G00 Z0.5000
G00 Z-0.5000
G01 Z-1.5000
G00 Z0.5000
G00 Z-1.0000
G01 Z-1.8000
G00 Z5.0000


(Nr. 39: Bohrung 21)
G00 X-38.4600 Y-22.1500 Z5.0000
G00 Z0.5000
G01 Z-0.5000 F25
G00 Z0.5000
G00 Z0.0000
G01 Z-1.0000
G00 Z0.5000
G00 Z-0.5000
G01 Z-1.5000
G00 Z0.5000
G00 Z-1.0000
G01 Z-1.8000
G00 Z5.0000


(Nr. 40: Bohrung 20)
G00 X-38.4600 Y-19.6100 Z5.0000
G00 Z0.5000
G01 Z-0.5000 F25
G00 Z0.5000
G00 Z0.0000
G01 Z-1.0000
G00 Z0.5000
G00 Z-0.5000
G01 Z-1.5000
G00 Z0.5000
G00 Z-1.0000
G01 Z-1.8000
G00 Z5.0000


(Nr. 41: Bohrung 19)
G00 X-38.4600 Y-17.0700 Z5.0000
G00 Z0.5000
G01 Z-0.5000 F25
G00 Z0.5000
G00 Z0.0000
G01 Z-1.0000
G00 Z0.5000
G00 Z-0.5000
G01 Z-1.5000
G00 Z0.5000
G00 Z-1.0000
G01 Z-1.8000
G00 Z5.0000


(Nr. 42: Bohrung 18)
G00 X-38.4600 Y-14.5300 Z5.0000
G00 Z0.5000
G01 Z-0.5000 F25
G00 Z0.5000
G00 Z0.0000
G01 Z-1.0000
G00 Z0.5000
G00 Z-0.5000
G01 Z-1.5000
G00 Z0.5000
G00 Z-1.0000
G01 Z-1.8000
G00 Z5.0000


(Nr. 43: Bohrung 17)
G00 X-38.4600 Y-11.9900 Z5.0000
G00 Z0.5000
G01 Z-0.5000 F25
G00 Z0.5000
G00 Z0.0000
G01 Z-1.0000
G00 Z0.5000
G00 Z-0.5000
G01 Z-1.5000
G00 Z0.5000
G00 Z-1.0000
G01 Z-1.8000
G00 Z5.0000


(Nr. 44: Bohrung 16)
G00 X-38.4600 Y-9.4500 Z5.0000
G00 Z0.5000
G01 Z-0.5000 F25
G00 Z0.5000
G00 Z0.0000
G01 Z-1.0000
G00 Z0.5000
G00 Z-0.5000
G01 Z-1.5000
G00 Z0.5000
G00 Z-1.0000
G01 Z-1.8000
G00 Z5.0000


(Nr. 45: Bohrung 15)
G00 X-38.4600 Y-6.9100 Z5.0000
G00 Z0.5000
G01 Z-0.5000 F25
G00 Z0.5000
G00 Z0.0000
G01 Z-1.0000
G00 Z0.5000
G00 Z-0.5000
G01 Z-1.5000
G00 Z0.5000
G00 Z-1.0000
G01 Z-1.8000
G00 Z5.0000


(Nr. 46: Bohrung 14)
G00 X-38.4600 Y-4.3700 Z5.0000
G00 Z0.5000
G01 Z-0.5000 F25
G00 Z0.5000
G00 Z0.0000
G01 Z-1.0000
G00 Z0.5000
G00 Z-0.5000
G01 Z-1.5000
G00 Z0.5000
G00 Z-1.0000
G01 Z-1.8000
G00 Z5.0000


(Nr. 47: Bohrung 13)
G00 X-38.4600 Y-1.8300 Z5.0000
G00 Z0.5000
G01 Z-0.5000 F25
G00 Z0.5000
G00 Z0.0000
G01 Z-1.0000
G00 Z0.5000
G00 Z-0.5000
G01 Z-1.5000
G00 Z0.5000
G00 Z-1.0000
G01 Z-1.8000
G00 Z5.0000


(Nr. 48: Bohrung 35)
G00 X-30.8400 Y-9.4600 Z5.0000
G00 Z0.5000
G01 Z-0.5000 F25
G00 Z0.5000
G00 Z0.0000
G01 Z-1.0000
G00 Z0.5000
G00 Z-0.5000
G01 Z-1.5000
G00 Z0.5000
G00 Z-1.0000
G01 Z-1.8000
G00 Z5.0000


(Nr. 49: Bohrung 34)
G00 X-30.8400 Y-19.6200 Z5.0000
G00 Z0.5000
G01 Z-0.5000 F25
G00 Z0.5000
G00 Z0.0000
G01 Z-1.0000
G00 Z0.5000
G00 Z-0.5000
G01 Z-1.5000
G00 Z0.5000
G00 Z-1.0000
G01 Z-1.8000
G00 Z5.0000


(Nr. 50: Bohrung 12)
G00 X-48.6200 Y-17.0000 Z5.0000
G00 Z0.5000
G01 Z-0.5000 F25
G00 Z0.5000
G00 Z0.0000
G01 Z-1.0000
G00 Z0.5000
G00 Z-0.5000
G01 Z-1.5000
G00 Z0.5000
G00 Z-1.0000
G01 Z-1.8000
G00 Z5.0000


(Nr. 51: Bohrung 11)
G00 X-48.6200 Y-14.4600 Z5.0000
G00 Z0.5000
G01 Z-0.5000 F25
G00 Z0.5000
G00 Z0.0000
G01 Z-1.0000
G00 Z0.5000
G00 Z-0.5000
G01 Z-1.5000
G00 Z0.5000
G00 Z-1.0000
G01 Z-1.8000
G00 Z5.0000


(Nr. 52: Bohrung 10)
G00 X-48.6200 Y-11.9200 Z5.0000
G00 Z0.5000
G01 Z-0.5000 F25
G00 Z0.5000
G00 Z0.0000
G01 Z-1.0000
G00 Z0.5000
G00 Z-0.5000
G01 Z-1.5000
G00 Z0.5000
G00 Z-1.0000
G01 Z-1.8000
G00 Z5.0000


(Nr. 53: Bohrung 9)
G00 X-48.6200 Y-9.3800 Z5.0000
G00 Z0.5000
G01 Z-0.5000 F25
G00 Z0.5000
G00 Z0.0000
G01 Z-1.0000
G00 Z0.5000
G00 Z-0.5000
G01 Z-1.5000
G00 Z0.5000
G00 Z-1.0000
G01 Z-1.8000
G00 Z5.0000


(Nr. 54: Bohrung 8)
G00 X-73.3850 Y-24.6200 Z5.0000
G00 Z0.5000
G01 Z-0.5000 F25
G00 Z0.5000
G00 Z0.0000
G01 Z-1.0000
G00 Z0.5000
G00 Z-0.5000
G01 Z-1.5000
G00 Z0.5000
G00 Z-1.0000
G01 Z-1.8000
G00 Z5.0000


(Nr. 55: Bohrung 7)
G00 X-73.3850 Y-27.1600 Z5.0000
G00 Z0.5000
G01 Z-0.5000 F25
G00 Z0.5000
G00 Z0.0000
G01 Z-1.0000
G00 Z0.5000
G00 Z-0.5000
G01 Z-1.5000
G00 Z0.5000
G00 Z-1.0000
G01 Z-1.8000
G00 Z5.0000


(Nr. 56: Bohrung 6)
G00 X-73.3850 Y-29.7000 Z5.0000
G00 Z0.5000
G01 Z-0.5000 F25
G00 Z0.5000
G00 Z0.0000
G01 Z-1.0000
G00 Z0.5000
G00 Z-0.5000
G01 Z-1.5000
G00 Z0.5000
G00 Z-1.0000
G01 Z-1.8000
G00 Z5.0000


(Nr. 57: Bohrung 5)
G00 X-73.3850 Y-32.2400 Z5.0000
G00 Z0.5000
G01 Z-0.5000 F25
G00 Z0.5000
G00 Z0.0000
G01 Z-1.0000
G00 Z0.5000
G00 Z-0.5000
G01 Z-1.5000
G00 Z0.5000
G00 Z-1.0000
G01 Z-1.8000
G00 Z5.0000


(Nr. 58: Bohrung 4)
G00 X-73.3850 Y-34.7800 Z5.0000
G00 Z0.5000
G01 Z-0.5000 F25
G00 Z0.5000
G00 Z0.0000
G01 Z-1.0000
G00 Z0.5000
G00 Z-0.5000
G01 Z-1.5000
G00 Z0.5000
G00 Z-1.0000
G01 Z-1.8000
G00 Z5.0000


(Nr. 59: Bohrung 3)
G00 X-73.3850 Y-37.3200 Z5.0000
G00 Z0.5000
G01 Z-0.5000 F25
G00 Z0.5000
G00 Z0.0000
G01 Z-1.0000
G00 Z0.5000
G00 Z-0.5000
G01 Z-1.5000
G00 Z0.5000
G00 Z-1.0000
G01 Z-1.8000
G00 Z5.0000


(Nr. 60: Bohrung 2)
G00 X-85.0000 Y-50.5000 Z5.0000
G00 Z0.5000
G01 Z-0.5000 F25
G00 Z0.5000
G00 Z0.0000
G01 Z-1.0000
G00 Z0.5000
G00 Z-0.5000
G01 Z-1.5000
G00 Z0.5000
G00 Z-1.0000
G01 Z-1.8000
G00 Z5.0000


(Nr. 61: Bohrung 1)
G00 X-85.0000 Y-5.0000 Z5.0000
G00 Z0.5000
G01 Z-0.5000 F25
G00 Z0.5000
G00 Z0.0000
G01 Z-1.0000
G00 Z0.5000
G00 Z-0.5000
G01 Z-1.5000
G00 Z0.5000
G00 Z-1.0000
G01 Z-1.8000
G00 Z5.0000


(Nr. 62: Bohrung 42)
G00 X-13.0600 Y-1.8300 Z5.0000
G00 Z0.5000
G01 Z-0.5000 F25
G00 Z0.5000
G00 Z0.0000
G01 Z-1.0000
G00 Z0.5000
G00 Z-0.5000
G01 Z-1.5000
G00 Z0.5000
G00 Z-1.0000
G01 Z-1.8000
G00 Z5.0000
G00 X0.0000 Y0.0000

M05
M30
